<?xml version="1.0" encoding="UTF-8"?>
<map version="1.10" tiledversion="1.10.2" orientation="orthogonal" renderorder="right-down" width="40" height="23" tilewidth="16" tileheight="16" infinite="0" nextlayerid="5" nextobjectid="1">
 <editorsettings>
  <export target="../Background/world.csv" format="csv"/>
 </editorsettings>
 <tileset firstgid="1" source="../Background/Water.tsx"/>
 <tileset firstgid="5" source="../../../../Downloads/sutra game/data/Sprites/Basement Sprites/Wooden House.tsx"/>
 <tileset firstgid="40" source="../../../../Downloads/sutra game/data/Sprites/Basement Sprites/spritesheet.tsx"/>
 <layer id="2" name="Tile Layer 2" width="40" height="23">
  <data encoding="csv">
40,41,42,43,40,41,42,43,40,41,42,43,40,41,42,43,40,41,42,43,40,41,42,43,40,0,0,0,0,0,0,0,0,0,0,0,0,0,0,43,
40,41,0,0,0,0,0,0,0,41,42,43,40,0,0,0,0,0,0,43,40,41,42,43,40,0,44,54,53,61,53,54,46,0,0,0,0,0,0,0,
40,0,0,0,0,0,0,0,0,0,0,0,0,0,0,0,0,0,0,0,40,41,42,43,0,0,47,59,0,0,0,60,49,44,54,53,45,68,46,0,
40,0,44,54,45,45,45,45,46,0,0,65,63,63,63,64,0,0,0,0,40,41,42,43,0,0,47,0,0,0,0,0,49,47,58,0,0,0,49,0,
40,0,47,55,0,0,0,0,49,0,0,66,0,0,0,0,0,0,0,0,40,41,42,43,0,0,50,45,0,53,45,45,52,47,57,0,0,0,49,0,
40,0,47,0,0,0,0,0,49,0,0,67,0,0,0,0,0,0,0,0,0,41,42,43,40,0,0,0,0,0,0,0,0,50,45,45,53,0,52,0,
40,0,50,51,53,0,51,51,52,0,0,0,0,0,0,0,0,0,0,0,0,41,42,43,40,0,0,0,0,0,0,0,0,0,0,0,0,0,0,43,
40,0,0,0,0,0,0,0,0,0,0,0,0,0,0,0,0,0,0,0,0,41,42,43,40,41,42,0,40,41,42,43,40,0,0,0,0,0,0,43,
40,0,0,0,0,0,0,0,0,0,0,62,63,63,63,63,64,0,0,0,0,41,42,43,40,41,42,0,40,41,42,43,40,41,42,43,40,0,42,43,
41,42,0,0,0,0,0,0,0,0,0,0,0,0,0,0,0,0,43,43,41,42,43,43,41,0,0,0,0,0,43,43,41,42,43,43,41,0,43,43,
40,41,42,43,40,0,42,43,0,0,0,0,0,0,0,0,40,41,42,43,40,41,42,43,40,0,0,0,0,0,0,43,40,41,42,0,0,0,0,0,
40,41,42,43,40,0,42,43,40,41,42,43,40,41,42,43,40,41,42,0,0,0,0,0,40,0,0,0,0,0,0,0,40,41,0,0,0,0,0,0,
40,41,42,43,40,0,42,43,40,41,42,43,40,41,42,43,40,41,0,0,0,0,0,0,0,0,0,0,0,0,0,0,0,0,0,0,0,0,0,0,
40,41,42,43,40,0,42,43,40,41,42,43,40,41,42,43,40,41,0,0,0,0,0,0,0,0,0,0,0,0,0,0,0,0,0,0,0,0,0,0,
40,41,42,0,0,0,0,0,40,41,42,43,40,41,42,43,40,41,0,0,0,0,0,0,0,0,0,0,0,0,0,0,0,0,0,0,0,0,0,43,
40,0,0,0,0,0,0,0,0,0,0,43,40,41,42,43,40,41,0,0,0,0,0,0,0,0,0,0,0,0,0,0,0,0,0,0,0,0,0,43,
40,0,0,0,0,0,0,0,0,0,0,0,0,0,0,0,0,0,0,0,0,0,0,0,0,0,0,0,0,0,0,0,0,0,0,0,0,0,0,43,
40,0,0,0,0,0,0,0,0,0,0,43,40,41,42,43,40,41,0,0,0,0,0,0,0,0,0,0,0,0,0,0,0,0,0,0,0,0,0,43,
40,0,0,0,0,0,0,0,0,0,42,43,40,41,42,43,40,41,42,0,0,0,0,0,0,0,0,0,0,0,0,0,0,0,0,0,0,0,0,43,
40,41,0,0,0,0,0,0,0,0,42,43,40,41,42,43,40,41,42,0,0,0,0,0,0,0,0,0,0,0,0,0,0,0,0,0,0,0,0,43,
40,41,42,0,0,0,0,0,40,41,42,43,40,41,42,43,40,41,42,43,40,41,42,43,40,0,0,0,0,0,0,0,0,0,0,0,0,0,42,43,
40,41,42,43,40,41,42,43,40,41,42,43,40,41,42,43,40,41,42,43,40,41,42,43,40,41,42,43,40,41,42,43,40,0,0,0,0,0,42,43,
40,41,42,43,40,41,42,43,40,41,42,43,40,41,42,43,40,41,42,43,40,41,42,43,40,41,42,43,40,41,42,43,40,41,42,43,40,41,42,43
</data>
 </layer>
</map>
